X: 10
T: Calliope House
R: jig
M: 6/8
L: 1/8
K: Emaj
|:"E"eBB gBB| fBB gBB|"A"cff f2e|"B"fgf ecB|
  "E"GBB B2G| B2c e2f|1 "A"g2g gfe|"B"f3 f2B:|2 "A" g2g "B"fec|"E"e3 fga||
|:"E"b2b gbb|fbb gbb|"A"a2a gag|"B"fgf fec|
"E"GBB B2G| B2c e2f|1 "A"g2g gfe|"B"f3 fga:|2 "A"g2g fec|"E"e3e3||

%%newpage
%% header "Pizza Wizards - Laride / Scottish du Stockfish 2		$P"

